main/plasma/plasma-light/icons/keyboard_layout.svg

<?xml version="1.0" encoding="UTF-8" standalone="no"?>
<!-- Created with Inkscape (http://www.inkscape.org/) -->

<svg
   xmlns:dc="http://purl.org/dc/elements/1.1/"
   xmlns:cc="http://creativecommons.org/ns#"
   xmlns:rdf="http://www.w3.org/1999/02/22-rdf-syntax-ns#"
   xmlns:svg="http://www.w3.org/2000/svg"
   xmlns="http://www.w3.org/2000/svg"
   xmlns:sodipodi="http://sodipodi.sourceforge.net/DTD/sodipodi-0.dtd"
   xmlns:inkscape="http://www.inkscape.org/namespaces/inkscape"
   version="1.1"
   width="22"
   height="22"
   id="svg2"
   inkscape:version="0.91+devel r"
   sodipodi:docname="keyboard_layout.svg"
   viewBox="0 0 22 22">
  <sodipodi:namedview
     pagecolor="#ffffff"
     bordercolor="#666666"
     borderopacity="1"
     objecttolerance="10"
     gridtolerance="10"
     guidetolerance="10"
     inkscape:pageopacity="0"
     inkscape:pageshadow="2"
     inkscape:window-width="2560"
     inkscape:window-height="957"
     id="namedview53"
     showgrid="true"
     inkscape:snap-bbox="true"
     inkscape:zoom="22.627417"
     inkscape:cx="-0.82233945"
     inkscape:cy="11.193351"
     inkscape:window-x="-4"
     inkscape:window-y="29"
     inkscape:window-maximized="1"
     inkscape:current-layer="svg2"
     inkscape:document-units="px">
    <inkscape:grid
       type="xygrid"
       id="grid3030"
       empspacing="5"
       visible="true"
       enabled="true"
       snapvisiblegridlinesonly="true" />
  </sodipodi:namedview>
  <defs
     id="defs4">
    <style
       id="current-color-scheme"
       type="text/css">
      .ColorScheme-Text {
        color:#7B7C7E;
      }
      .ColorScheme-Background{
        color:#EFF0F1;
      }
      .ColorScheme-Highlight{
        color:#3DAEE6;
      }
      .ColorScheme-ViewText {
        color:#7B7C7E;
      }
      .ColorScheme-ViewBackground{
        color:#FCFCFC;
      }
      .ColorScheme-ViewHover {
        color:#3DAEE6;
      }
      .ColorScheme-ViewFocus{
        color:#1E92FF;
      }
      .ColorScheme-ButtonText {
        color:#7B7C7E;
      }
      .ColorScheme-ButtonBackground{
        color:#EFF0F1;
      }
      .ColorScheme-ButtonHover {
        color:#3DAEE6;
      }
      .ColorScheme-ButtonFocus{
        color:#1E92FF;
      }
</style>
  </defs>
  <metadata
     id="metadata7">
    <rdf:RDF>
      <cc:Work
         rdf:about="">
        <dc:format>image/svg+xml</dc:format>
        <dc:type
           rdf:resource="http://purl.org/dc/dcmitype/StillImage" />
        <dc:title />
      </cc:Work>
    </rdf:RDF>
  </metadata>
  <g
     id="keyboard-layout">
    <g
       id="g3775">
      <path
         style="fill:#4d4d4d;fill-opacity:1;stroke:none"
         d="m 11,3 c -4.418278,0 -8,3.581722 -8,8 0,4.418278 3.581722,8 8,8 4.418278,0 8,-3.581722 8,-8 0,-4.418278 -3.581722,-8 -8,-8 z m 1.544922,1.1835938 c 1.012107,0.2394016 1.909949,0.7076764 2.654297,1.3554687 C 14.842762,5.8119758 14.676641,6.2637213 14.34375,6.5625 14.44627,6.657244 14.39749,6.90544 14.5,7 c 0.08572,-0.06226 0.20374,-0.08596 0.375,-0.0625 0.006,0.0054 -0.0071,0.05 0,0.0625 0.06385,0.112514 0.150852,0.436065 -0.09375,0.375 C 14.75725,7.20392 14.8129,7.08572 14.875,7 14.48898,7.278277 14.47285,7.96517 13.84375,8 13.8663,8.17036 13.633,8.04818 13.625,8.1875 13.7008,8.357498 13.87655,8.471543 13.84375,8.75 l -0.09375,0 c -0.06768,0.201218 -0.22528,-0.102865 -0.4375,0 -0.2298,0.04042 -0.11011,0.400443 -0.21875,0.5625 -0.0204,0.119648 0.0585,0.1558 0.0625,0.25 l 0.6875,0 c 0.01552,-0.08247 0.0599,-0.15448 0.125,-0.1875 l 0,-0.25 c 0.23226,-0.11243 0.42528,-0.29325 0.6875,-0.375 0.1003,0.02292 0.0499,0.139555 0.0625,0.25 0.07164,-0.300294 0.90015,0.35106 0.375,0.4375 0.23604,0.278637 0.28037,-0.20573 0.5,-0.1875 0.03158,0.140762 0.21975,0.139313 0.15625,0.375 l 0.15625,0 c 0.29289,-0.08662 -0.09493,-0.47179 0.375,-0.4375 -0.10088,0.09438 -0.10088,0.3433 0,0.4375 0.21042,0.109723 0.58855,0.06057 0.65625,0.3125 -0.04079,0.131559 -0.04671,0.24988 -0.15625,0.3125 -0.0092,-0.16314 -0.30775,-0.02027 -0.4375,-0.0625 C 15.99653,10.31184 16.03772,10.14311 15.8125,10 15.70458,10.06425 15.58145,10.0652 15.59375,10.25 15.35644,10.143165 15.22714,9.99272 14.9375,9.9375 l 0,-0.3125 c -0.56179,-0.205369 -1.94575,-0.06546 -1.90625,0.8125 -0.82129,0.298308 -0.43864,1.034819 -0.6875,1.75 0.2725,0.243988 0.41759,0.628246 0.75,0.8125 0.46344,-0.0536 0.78964,0.03395 1.25,-0.125 -0.01822,0.240381 0.2759,0.127645 0.375,0.25 -0.05252,0.884638 0.64801,1.416857 0.15625,2.125 0.168047,0.354103 0.209572,0.807597 0.292969,1.236328 C 14.067023,17.432158 12.641186,18 11,18 10.125958,18 9.2929384,17.83169 8.5214844,17.539062 8.6184748,17.478898 8.7390587,17.413423 8.875,17.375 8.93639,17.166022 8.7824,17.177938 8.8125,17 c 0.42481,0.11243 0.7441,-0.452231 0.8125,-0.9375 0.19797,-0.09691 0.39524,-0.21523 0.59375,-0.3125 -0.01011,-0.772569 0.4305,-1.118794 0.5,-1.8125 -0.48599,-0.177758 -0.84768,-0.425347 -1.375,-0.5625 l 0,-0.375 C 9.04851,12.729303 8.47859,12.712351 8.375,12.25 7.89226,12.2449 7.57155,12.21589 7.40625,12.0625 7.13104,12.10726 7.10232,12.40754 6.8125,12.4375 6.81069,12.36571 6.7449,12.3291 6.6875,12.3125 6.30942,12.25818 6.4167,12.014502 6.4375,11.6875 6.3303,11.64744 6.08125,11.78543 6.09375,11.625 6.08256,11.441829 6.10938,11.3128 6.21875,11.25 6.18121,10.993199 5.75455,11.078437 5.78125,11.3125 l -0.0625,0 c -1.15011,-0.266185 0.0476,-1.514443 0.71875,-1.125 0.05684,0.21385 0.13402,0.4076 0.3125,0.5 C 6.96999,10.539339 6.65604,10.12837 6.8125,10.0625 6.90724,9.935994 6.97112,9.7547 7.1875,9.75 7.32357,8.910298 8.24275,8.664524 8.59375,8.4375 l 0,-0.0625 C 8.59212,8.30317 8.4947,8.32892 8.4375,8.3125 8.3924,8.30835 8.3613,8.2503 8.375,8.1875 8.34485,8.009742 8.4985,8.020937 8.4375,7.8125 8.67553,8.1229 8.90922,7.75752 9.1875,7.6875 9.14599,7.793794 9.07486,7.89617 8.96875,7.9375 8.91661,7.99218 8.77319,8.25337 9.03125,8.1875 9.20504,8.1857 9.24317,8.36592 9.46875,8.3125 9.36336,7.654526 8.98117,7.251514 8.75,6.5625 8.51088,6.471546 8.67643,6.84131 8.4375,6.75 8.18234,6.759203 8.34375,6.37097 8.15625,6.3125 7.88862,6.359962 7.79125,6.1187 7.71875,6.125 7.71485,6.16994 7.6878,6.20086 7.625,6.1875 7.65026,7.149377 7.43925,7.031632 7.1875,7.625 7.1893,7.451032 7.0716,7.413261 7.125,7.1875 7.0234,7.19093 6.96585,7.16416 6.90625,7.125 6.66009,7.027007 6.3758,6.968664 6.3125,6.6875 6.52869,6.436293 6.68151,6.117302 7.03125,6 c -0.05523,0.18732 0.2991,0.312201 0.3125,0.1875 -0.0743,-7.22e-4 -0.0929,-0.10659 0,-0.125 C 7.44553,6.05943 7.5031,6.08602 7.5625,6.125 7.57495,5.940384 7.45203,5.93906 7.34375,5.875 7.4273,5.687858 7.6856,5.643472 7.625,5.3125 7.38985,5.21072 7.89172,5.250721 8,5.25 7.9446,5.477385 8.21115,5.397614 8.15625,5.625 8.13874,5.85383 7.89993,5.87289 7.71875,5.9375 8.04304,6.031702 8.25568,6.232253 8.53125,6.375 8.71116,6.236361 8.38402,6.06713 8.75,6.1875 8.76119,6.004328 8.75527,5.88583 8.59375,5.875 8.6663,5.648517 8.777,5.94869 8.875,5.9375 8.95025,5.88986 8.97991,5.7278 9.125,5.75 8.68575,5.365611 8.69094,4.81581 7.9375,4.875 7.69875,4.79 8.12185,4.8029 8.21875,4.8125 8.2075445,4.7415208 8.1177213,4.7068471 8.0566406,4.65625 8.3733884,4.5090046 8.7007012,4.3823069 9.0410156,4.2832031 9.4323305,4.4490372 9.9180666,4.5973667 9.6875,5.25 c 0.01299,0.06659 0.0862,0.08975 0.125,0.0625 -0.15845,0.333499 -0.05784,1.22341 0.46875,1.375 0.21006,-0.134265 0.27797,-0.440384 0.4375,-0.625 0.32899,-0.482923 1.0874,-0.538013 1.625,-0.8125 -0.36237,-0.274848 0.25338,-0.548359 0,-0.875 0.03213,-0.109362 0.12314,0.02905 0.25,0 5.06e-4,-0.048908 -0.0268,-0.1213757 -0.04883,-0.1914062 z M 7.15625,5.1523438 C 7.268699,5.1905853 7.3818358,5.2414769 7.34375,5.375 7.27803,5.407303 7.2032,5.47967 7.1875,5.5625 7.148425,5.443162 7.0483867,5.355514 6.9589844,5.2890625 7.0243012,5.2427585 7.0893029,5.1964377 7.15625,5.1523438 Z M 12.0625,5.75 c -0.0031,0.224679 0.15365,0.281578 0.21875,0.4375 0.3021,0.00704 0.58365,0.03513 0.59375,-0.25 7e-4,-0.07381 -0.0484,-0.12777 -0.0625,-0.1875 -0.29506,0.07237 -0.45458,0.07237 -0.75,0 z m -0.53125,0.375 c -0.321892,-0.058658 -0.765125,0.2486606 -0.71875,0.8125 0.04548,0.102141 0.27005,0.05107 0.28125,0.1875 -0.0413,-3.6e-4 -0.0837,0.04879 0,0.0625 0.26474,-0.153395 0.63685,-0.195014 0.75,-0.5 C 11.874,6.3814092 11.724385,6.1601949 11.53125,6.125 Z m 2,0.75 C 13.37265,7.264804 13.76742,7.607309 13.46875,8 13.60103,8.0092 13.6105,7.9209 13.75,7.9375 c 0.20862,0.061 0.19743,-0.15514 0.375,-0.125 l 0,-0.125 C 13.81244,7.532842 13.91582,6.95783 13.53125,6.875 Z M 13.375,7.3125 C 13.13878,7.3222 13.06455,7.474791 13.09375,7.75 l 0.375,0 C 13.47835,7.568272 13.4602,7.39985 13.375,7.3125 Z M 4.1875,10.5 c 0.23677,0.152313 0.3963,0.401943 0.375,0.8125 0.76138,0.551861 1.81264,0.842866 2.34375,1.625 -0.08013,0.211866 -0.24344,0.339567 -0.375,0.5 -0.20645,0.973427 0.95605,1.432315 1.09375,2.25 0.08201,0.48661 0.02624,0.98325 -0.029297,1.425781 C 5.4519952,15.916802 4,13.62936 4,11 4,10.862018 4.013609,10.727805 4.0214844,10.591797 4.142975,10.751013 4.2647466,10.922855 4.34375,11 4.3313,10.793367 4.1998,10.706813 4.1875,10.5 Z m 2.375,0.375 C 6.48429,10.875417 6.424987,10.91938 6.375,11 6.79927,10.96914 6.8481,11.3203 7.25,11.3125 7.113568,11.187573 6.797142,10.873748 6.5625,10.875 Z m 0.875,0.4375 c -0.082196,0.02487 -0.15365,0.06048 -0.1875,0.125 0.17379,0.05179 0.49415,0.191716 0.46875,-0.125 -0.106115,-0.0078 -0.1990538,-0.02487 -0.28125,0 z"
         id="path2993"
         inkscape:connector-curvature="0" />
    </g>
    <rect
       y="0"
       x="0"
       height="22"
       width="22"
       id="rect3779"
       style="fill:#ff0000;fill-opacity:0;stroke:none" />
  </g>
</svg>

<?xml version="1.0" encoding="UTF-8" standalone="no"?>
<!-- Created with Inkscape (http://www.inkscape.org/) -->

<svg
   xmlns:dc="http://purl.org/dc/elements/1.1/"
   xmlns:cc="http://creativecommons.org/ns#"
   xmlns:rdf="http://www.w3.org/1999/02/22-rdf-syntax-ns#"
   xmlns:svg="http://www.w3.org/2000/svg"
   xmlns="http://www.w3.org/2000/svg"
   xmlns:sodipodi="http://sodipodi.sourceforge.net/DTD/sodipodi-0.dtd"
   xmlns:inkscape="http://www.inkscape.org/namespaces/inkscape"
   version="1.1"
   width="22"
   height="22"
   id="svg2"
   inkscape:version="0.91 r13725"
   sodipodi:docname="keyboard_layout.svg">
  <sodipodi:namedview
     pagecolor="#ffffff"
     bordercolor="#666666"
     borderopacity="1"
     objecttolerance="10"
     gridtolerance="10"
     guidetolerance="10"
     inkscape:pageopacity="0"
     inkscape:pageshadow="2"
     inkscape:window-width="2560"
     inkscape:window-height="1027"
     id="namedview53"
     showgrid="true"
     inkscape:snap-bbox="true"
     inkscape:zoom="22.627417"
     inkscape:cx="8.5468254"
     inkscape:cy="11.193351"
     inkscape:window-x="-8"
     inkscape:window-y="-8"
     inkscape:window-maximized="1"
     inkscape:current-layer="svg2">
    <inkscape:grid
       type="xygrid"
       id="grid3030"
       empspacing="5"
       visible="true"
       enabled="true"
       snapvisiblegridlinesonly="true" />
  </sodipodi:namedview>
  <defs
     id="defs4">
    <style
       id="current-color-scheme"
       type="text/css">
      .ColorScheme-Text {
        color:#7B7C7E;
      }
      .ColorScheme-Background{
        color:#EFF0F1;
      }
      .ColorScheme-Highlight{
        color:#3DAEE6;
      }
      .ColorScheme-ViewText {
        color:#7B7C7E;
      }
      .ColorScheme-ViewBackground{
        color:#FCFCFC;
      }
      .ColorScheme-ViewHover {
        color:#3DAEE6;
      }
      .ColorScheme-ViewFocus{
        color:#1E92FF;
      }
      .ColorScheme-ButtonText {
        color:#7B7C7E;
      }
      .ColorScheme-ButtonBackground{
        color:#EFF0F1;
      }
      .ColorScheme-ButtonHover {
        color:#3DAEE6;
      }
      .ColorScheme-ButtonFocus{
        color:#1E92FF;
      }
</style>
  </defs>
  <metadata
     id="metadata7">
    <rdf:RDF>
      <cc:Work
         rdf:about="">
        <dc:format>image/svg+xml</dc:format>
        <dc:type
           rdf:resource="http://purl.org/dc/dcmitype/StillImage" />
        <dc:title></dc:title>
      </cc:Work>
    </rdf:RDF>
  </metadata>
  <g
     id="keyboard-layout">
    <g
       id="g3775">
      <path
         style="fill:#566060;fill-opacity:1;stroke:none"
         d="M 11 3 C 6.581722 3 3 6.581722 3 11 C 3 15.418278 6.581722 19 11 19 C 15.418278 19 19 15.418278 19 11 C 19 6.581722 15.418278 3 11 3 z M 12.544922 4.1835938 C 13.557029 4.4229954 14.454871 4.8912702 15.199219 5.5390625 C 14.842762 5.8119758 14.676641 6.2637213 14.34375 6.5625 C 14.44627 6.657244 14.39749 6.90544 14.5 7 C 14.58572 6.93774 14.70374 6.91404 14.875 6.9375 C 14.881 6.9429 14.8679 6.9875 14.875 7 C 14.93885 7.112514 15.025852 7.436065 14.78125 7.375 C 14.75725 7.20392 14.8129 7.08572 14.875 7 C 14.48898 7.278277 14.47285 7.96517 13.84375 8 C 13.8663 8.17036 13.633 8.04818 13.625 8.1875 C 13.7008 8.357498 13.87655 8.471543 13.84375 8.75 L 13.75 8.75 C 13.68232 8.951218 13.52472 8.647135 13.3125 8.75 C 13.0827 8.79042 13.20239 9.150443 13.09375 9.3125 C 13.07335 9.432148 13.15225 9.4683 13.15625 9.5625 L 13.84375 9.5625 C 13.85927 9.48003 13.90365 9.40802 13.96875 9.375 L 13.96875 9.125 C 14.20101 9.01257 14.39403 8.83175 14.65625 8.75 C 14.75655 8.77292 14.70615 8.889555 14.71875 9 C 14.79039 8.699706 15.6189 9.35106 15.09375 9.4375 C 15.32979 9.716137 15.37412 9.23177 15.59375 9.25 C 15.62533 9.390762 15.8135 9.389313 15.75 9.625 L 15.90625 9.625 C 16.19914 9.53838 15.81132 9.15321 16.28125 9.1875 C 16.18037 9.28188 16.18037 9.5308 16.28125 9.625 C 16.49167 9.734723 16.8698 9.68557 16.9375 9.9375 C 16.89671 10.069059 16.89079 10.18738 16.78125 10.25 C 16.77205 10.08686 16.4735 10.22973 16.34375 10.1875 C 15.99653 10.31184 16.03772 10.14311 15.8125 10 C 15.70458 10.06425 15.58145 10.0652 15.59375 10.25 C 15.35644 10.143165 15.22714 9.99272 14.9375 9.9375 L 14.9375 9.625 C 14.37571 9.419631 12.99175 9.55954 13.03125 10.4375 C 12.20996 10.735808 12.59261 11.472319 12.34375 12.1875 C 12.61625 12.431488 12.76134 12.815746 13.09375 13 C 13.55719 12.9464 13.88339 13.03395 14.34375 12.875 C 14.32553 13.115381 14.61965 13.002645 14.71875 13.125 C 14.66623 14.009638 15.36676 14.541857 14.875 15.25 C 15.043047 15.604103 15.084572 16.057597 15.167969 16.486328 C 14.067023 17.432158 12.641186 18 11 18 C 10.125958 18 9.2929384 17.83169 8.5214844 17.539062 C 8.6184748 17.478898 8.7390587 17.413423 8.875 17.375 C 8.93639 17.166022 8.7824 17.177938 8.8125 17 C 9.23731 17.11243 9.5566 16.547769 9.625 16.0625 C 9.82297 15.96559 10.02024 15.84727 10.21875 15.75 C 10.20864 14.977431 10.64925 14.631206 10.71875 13.9375 C 10.23276 13.759742 9.87107 13.512153 9.34375 13.375 L 9.34375 13 C 9.04851 12.729303 8.47859 12.712351 8.375 12.25 C 7.89226 12.2449 7.57155 12.21589 7.40625 12.0625 C 7.13104 12.10726 7.10232 12.40754 6.8125 12.4375 C 6.81069 12.36571 6.7449 12.3291 6.6875 12.3125 C 6.30942 12.25818 6.4167 12.014502 6.4375 11.6875 C 6.3303 11.64744 6.08125 11.78543 6.09375 11.625 C 6.08256 11.441829 6.10938 11.3128 6.21875 11.25 C 6.18121 10.993199 5.75455 11.078437 5.78125 11.3125 L 5.71875 11.3125 C 4.56864 11.046315 5.76635 9.798057 6.4375 10.1875 C 6.49434 10.40135 6.57152 10.5951 6.75 10.6875 C 6.96999 10.539339 6.65604 10.12837 6.8125 10.0625 C 6.90724 9.935994 6.97112 9.7547 7.1875 9.75 C 7.32357 8.910298 8.24275 8.664524 8.59375 8.4375 L 8.59375 8.375 C 8.59212 8.30317 8.4947 8.32892 8.4375 8.3125 C 8.3924 8.30835 8.3613 8.2503 8.375 8.1875 C 8.34485 8.009742 8.4985 8.020937 8.4375 7.8125 C 8.67553 8.1229 8.90922 7.75752 9.1875 7.6875 C 9.14599 7.793794 9.07486 7.89617 8.96875 7.9375 C 8.91661 7.99218 8.77319 8.25337 9.03125 8.1875 C 9.20504 8.1857 9.24317 8.36592 9.46875 8.3125 C 9.36336 7.654526 8.98117 7.251514 8.75 6.5625 C 8.51088 6.471546 8.67643 6.84131 8.4375 6.75 C 8.18234 6.759203 8.34375 6.37097 8.15625 6.3125 C 7.88862 6.359962 7.79125 6.1187 7.71875 6.125 C 7.71485 6.16994 7.6878 6.20086 7.625 6.1875 C 7.65026 7.149377 7.43925 7.031632 7.1875 7.625 C 7.1893 7.451032 7.0716 7.413261 7.125 7.1875 C 7.0234 7.19093 6.96585 7.16416 6.90625 7.125 C 6.66009 7.027007 6.3758 6.968664 6.3125 6.6875 C 6.52869 6.436293 6.68151 6.117302 7.03125 6 C 6.97602 6.18732 7.33035 6.312201 7.34375 6.1875 C 7.26945 6.186778 7.25085 6.08091 7.34375 6.0625 C 7.44553 6.05943 7.5031 6.08602 7.5625 6.125 C 7.57495 5.940384 7.45203 5.93906 7.34375 5.875 C 7.4273 5.687858 7.6856 5.643472 7.625 5.3125 C 7.38985 5.21072 7.89172 5.250721 8 5.25 C 7.9446 5.477385 8.21115 5.397614 8.15625 5.625 C 8.13874 5.85383 7.89993 5.87289 7.71875 5.9375 C 8.04304 6.031702 8.25568 6.232253 8.53125 6.375 C 8.71116 6.236361 8.38402 6.06713 8.75 6.1875 C 8.76119 6.004328 8.75527 5.88583 8.59375 5.875 C 8.6663 5.648517 8.777 5.94869 8.875 5.9375 C 8.95025 5.88986 8.97991 5.7278 9.125 5.75 C 8.68575 5.365611 8.69094 4.81581 7.9375 4.875 C 7.69875 4.79 8.12185 4.8029 8.21875 4.8125 C 8.2075445 4.7415208 8.1177213 4.7068471 8.0566406 4.65625 C 8.3733884 4.5090046 8.7007012 4.3823069 9.0410156 4.2832031 C 9.4323305 4.4490372 9.9180666 4.5973667 9.6875 5.25 C 9.70049 5.31659 9.7737 5.33975 9.8125 5.3125 C 9.65405 5.645999 9.75466 6.53591 10.28125 6.6875 C 10.49131 6.553235 10.55922 6.247116 10.71875 6.0625 C 11.04774 5.579577 11.80615 5.524487 12.34375 5.25 C 11.98138 4.975152 12.59713 4.701641 12.34375 4.375 C 12.37588 4.265638 12.46689 4.40405 12.59375 4.375 C 12.594256 4.3260915 12.566946 4.2536243 12.544922 4.1835938 z M 7.15625 5.1523438 C 7.268699 5.1905853 7.3818358 5.2414769 7.34375 5.375 C 7.27803 5.407303 7.2032 5.47967 7.1875 5.5625 C 7.148425 5.443162 7.0483867 5.355514 6.9589844 5.2890625 C 7.0243012 5.2427585 7.0893029 5.1964377 7.15625 5.1523438 z M 12.0625 5.75 C 12.0594 5.974679 12.21615 6.031578 12.28125 6.1875 C 12.58335 6.19454 12.8649 6.22263 12.875 5.9375 C 12.8757 5.86369 12.8266 5.80973 12.8125 5.75 C 12.51744 5.82237 12.35792 5.82237 12.0625 5.75 z M 11.53125 6.125 C 11.209358 6.066342 10.766125 6.3736606 10.8125 6.9375 C 10.85798 7.039641 11.08255 6.98857 11.09375 7.125 C 11.05245 7.12464 11.01005 7.17379 11.09375 7.1875 C 11.35849 7.034105 11.7306 6.992486 11.84375 6.6875 C 11.874 6.3814092 11.724385 6.1601949 11.53125 6.125 z M 13.53125 6.875 C 13.37265 7.264804 13.76742 7.607309 13.46875 8 C 13.60103 8.0092 13.6105 7.9209 13.75 7.9375 C 13.95862 7.9985 13.94743 7.78236 14.125 7.8125 L 14.125 7.6875 C 13.81244 7.532842 13.91582 6.95783 13.53125 6.875 z M 13.375 7.3125 C 13.13878 7.3222 13.06455 7.474791 13.09375 7.75 L 13.46875 7.75 C 13.47835 7.568272 13.4602 7.39985 13.375 7.3125 z M 4.1875 10.5 C 4.42427 10.652313 4.5838 10.901943 4.5625 11.3125 C 5.32388 11.864361 6.37514 12.155366 6.90625 12.9375 C 6.82612 13.149366 6.66281 13.277067 6.53125 13.4375 C 6.3248 14.410927 7.4873 14.869815 7.625 15.6875 C 7.7070102 16.17411 7.6512403 16.67075 7.5957031 17.113281 C 5.4519952 15.916802 4 13.62936 4 11 C 4 10.862018 4.013609 10.727805 4.0214844 10.591797 C 4.142975 10.751013 4.2647466 10.922855 4.34375 11 C 4.3313 10.793367 4.1998 10.706813 4.1875 10.5 z M 6.5625 10.875 C 6.48429 10.875417 6.424987 10.91938 6.375 11 C 6.79927 10.96914 6.8481 11.3203 7.25 11.3125 C 7.113568 11.187573 6.797142 10.873748 6.5625 10.875 z M 7.4375 11.3125 C 7.355304 11.33737 7.28385 11.37298 7.25 11.4375 C 7.42379 11.48929 7.74415 11.629216 7.71875 11.3125 C 7.612635 11.3047 7.5196962 11.28763 7.4375 11.3125 z "
         id="path2993" />
    </g>
    <rect
       y="0"
       x="0"
       height="22"
       width="22"
       id="rect3779"
       style="fill:#ff0000;fill-opacity:0;stroke:none" />
  </g>
</svg>
